X: 10501
T: Doody's Stick
R: reel
M: 4/4
K: Gmajor
GA|~B3G A2GE|DG~G2 DG~G2|~B3G A2GE|DGBG A2GA|
~B3G A2GE|DG~G2 DG~G2|~G3E DEGB|AGAB G2:|:Bd|
~g3e dega|bagb agef|~g3e dega|bagb a2ga|
b2ba gage|~d3B AGEF|~G3E DEGB|AGAB G2:|

